X:16
T:score110
L:1/8
Q:1/4=96
M:3/4
I:linebreak $
K:Eb
 G2 G>F E/F/G/A/ | BG eB g z | F2 F>G F/E/D/C/ |$ B,D FD B z | E2 E2 F/E/D/E/ | FG AB c z | %6
 F2 F2 F/=E/F/G/ |$ E4 z2 |] %8
